X:349
T:The women's rock
T:The green gates
R:Reel
O:Ireland
D:Conal O'Grada: Top of Coom (?)
D:Show the Ladies
B:O'Neill's 1550
S:Show the Ladies
Z:Transcription, chords:Mike Long
M:C|
L:1/8
K:G
A|\
"G"GBdg (3(ege) dB|GBdg (3(ege) dg|"Am"eA~A2 eA~A2|"Am"(3(Bcd) ef "D"gedB|\
"G"GBdg (3(ege) dB|
GBdg (3(ege) dB|"C"cdef gedc|"D"(3(BcB) (3(ABA) "G"G3:|\
|:B|\
"G"dgfg bgfg|dgfg gedg|"Am"eA~A2 eA~A2|
"Am"(3(Bcd) ef "D"gedB|\
"G"dgfg bgfg|dgfg (3(efe) dB|"C"cdef gedc|"D"(3(BcB) (3(ABA) "G"G3:|
